X: 50
T:Circle Around
% Nottingham Music Database
S:Chris Dewhurst 1978, via Phil Rowe
M:6/8
K:G
"(D7)"B,2C |"G"D2B B^AB|"G"G2D B,CD|"C"E2F GFE|"G"D3 "D"d2c|"G"B2B B^AB|
"Em"G2B E2B|"A7"A^GA ABc|"D"d3 "D7"d2c|"G"B2D B^AB|"G"G2D B,CD|
"C"E2F GFE|"G"D3 ^D3|"C7"E^DE GFE|"G"DGB "Em"d2D|"Am"E2A "D"FEF|"G"G3 B2c||
"G"ded BdB|"G"GBG "C"EGE|"G"DBA GF=F|"C"E3 "E7"e2d|"Am"cdc BcB|
"A7"ABA GAG|"D"FGF "A"EAc|"D"d3 "D7"B2c|"G"ded BdB|"G"GBG "C"EGE|
"G"D2B "G7"c2d|"C"e3 e2f|g2f efg|"G"d2B "Em"GAB|"Am"cAF "D"DEF|"G"G3 ||


